X: 951
T: Güneş Gibi Şahsım Olsa
C: Sadettin Kaynak
O: Turkey
F: http://compmusic.upf.edu/node/140
N: muhayyer--sarki--aksak--gunes_gibi--sadettin_kaynak
N: makam= muhayyer
N: form= sarki
N: usul= aksak = 9/8
M: 9/8
L: 1/16
K: C _2/4B ^3/4f  
Q: 1/4=168
%%MIDI tuningsystem comma53
a4 z2fg a2a/a/a/a/ .a2.a2 .a2 | a2 fga2 fga2 fg.a2 .a2.a2  | 
w:  ARANAĞME  |   | 
c'3b a3g ^2/4f3e d4 e^3/4f | a3g=f3ed2 _b2a2 g2f2  | \
w:   |   | 
e3d c3B A4 ABAB cd | 
w:   | 
B3AG2 BAA4de fgfg  | a4 z2fg a2a/a/a/a/ .a2.a2 .a2 | 
w:   |  ARANAĞME  | 
a2 fga2 fga2 fg.a2 .a2.a2  | c'3b a3g ^2/4f3e d4 e^3/4f | 
w:   |   | 
a3g=f3ed2 _b2a2 g2f2  | e3d c3B A4 ABAB cd | \
w:   |   | 
B3AG2 BAA4de fgfg  | 
w:   | 
a4 f2g2 a4 a6 | g2 {a}gfg2 a2g2 =f2e4ed  | \
w:  *  Gü neş  gi bi   |  şah *  *  *  sım *  ol *  sa  a  | 
d6fg agfg abc'b ag | 
w:  man   SAZ  | 
a4f2 g2a4a6  | g2gf g2a2 g2=f2 e4 dc | \
w:  *  Dev let  gi bi   |  tah *  *  tım  *  ol *  sa  a  | 
c4z2 de=fe defe fgag  | 
w:  man   SAZ  | 
=f4 d2e2 {g}f2e2 a2g2 f2 | e2 d2g3gg4gf _3/4edcB  | \
w:  *  Ga zi  *  gi *  bi   |  *  *  bah tım_ ol sa    | 
A3G A2B2 c2d2 e2d2 e2 | 
w:  *  *  Yi ne  ba *  na   | 
c3Bd2 cBB2 ABA6  | A8 _B2BA BAG^F G2 | \
w:  *  *  ge len  *  ol  |  maz   Ni de *  yim   | 
c3Bc2 d2cB BcB2 A4  | 
w:  ben  bu  el ler den  *  *  *  gi de  | 
A8 _B2B2 BAG^F G2 | c3Bc2 d2cB BcB2 A4  | \
w:  yim   Ni de yim   |  ben  bu  el ler den  *  *  *  gi de  | 
A16 z2 | a4z2 fga2 a/a/a/a/.a2 .a2.a2  | 
w:  yim    |  ARANAĞME  | 
a2fg a2fg a2fg .a2.a2 .a2 | c'3ba3g^2/4f3ed4e^3/4f  | 
w:   |   | 
a3g =f3e d2_b2 a2g2 f2 | e3dc3BA4AB ABcd  | \
w:   |   | 
B3A G2BA A4 defg fg | 
w:   | 
a4z2 fga2 a/a/a/a/.a2 .a2.a2  | a2fg a2fg a2fg .a2.a2 .a2 | 
w:  ARANAĞME  |   | 
c'3ba3g^2/4f3ed4e^3/4f  | a3g =f3e d2_b2 a2g2 f2 | \
w:   |   | 
e3dc3BA4AB ABcd  | 
w:   | 
B3A G2BA A4 defg fg | a4f2 g2a4a6  | \
w:   |  *  Gü neş  gi bi   | 
g2{a}gf g2a2 g2=f2 e4 ed | 
w:  şah *  *  *  sım *  ol *  sa  a  | 
d6 fgag fgab c'bag  | a4 f2g2 a4 a6 | \
w:  man   SAZ  |  *  Dev let  gi bi   | 
g2 gfg2 a2g2 =f2e4dc  | 
w:  tah *  *  tım  *  ol *  sa  a  | 
c4 z2de =fede fefg ag | =f4d2 e2{g}f2 e2a2 g2f2  | 
w:  man   SAZ  |  *  Ga zi  *  gi *  bi   | 
e2d2 g3g g4 gf_3/4ed cB | A3GA2 B2c2 d2e2 d2e2  | \
w:  *  *  bah tım_ ol sa    |  *  *  Yi ne  ba *  na   | 
c3B d2cB B2AB A6 | 
w:  *  *  ge len  *  ol  | 
A8_B2 BABA G^FG2  | c3B c2d2 cBBc B2A4 | \
w:  maz   Ni de *  yim   |  ben  bu  el ler den  *  *  *  gi de  | 
A8_B2 B2BA G^FG2  | 
w:  yim   Ni de yim   | 
c3B c2d2 cBBc B2A4 | A16z2  | |


